src/svg/dot-circled.svg

<svg height="1000" width="857.143" xmlns="http://www.w3.org/2000/svg"><path d="M571.392 500.032q0 59.148 -41.85 100.998t-100.998 41.85 -100.998 -41.85 -41.85 -100.998 41.85 -100.998 100.998 -41.85 100.998 41.85 41.85 100.998zm-142.848 -303.552q-82.584 0 -152.334 40.734t-110.484 110.484 -40.734 152.334 40.734 152.334 110.484 110.484 152.334 40.734 152.334 -40.734 110.484 -110.484 40.734 -152.334 -40.734 -152.334 -110.484 -110.484 -152.334 -40.734zm428.544 303.552q0 116.622 -57.474 215.109t-155.961 155.961 -215.109 57.474 -215.109 -57.474 -155.961 -155.961 -57.474 -215.109 57.474 -215.109 155.961 -155.961 215.109 -57.474 215.109 57.474 155.961 155.961 57.474 215.109z"/></svg>

<svg height="1000" width="857.1" xmlns="http://www.w3.org/2000/svg"><path d="M571.4 500q0 59.2 -41.8 101t-101 41.9T327.6 601 285.7 500t41.9 -101 101 -41.9 101 41.9 41.8 101zM428.6 196.4q-82.6 0 -152.4 40.8T165.7 347.7 125 500t40.7 152.3 110.5 110.5 152.4 40.8 152.3 -40.8T691.4 652.3 732.1 500 691.4 347.7 580.9 237.2 428.6 196.4zM857.1 500q0 116.6 -57.4 215.1t-156 156 -215.1 57.5T213.4 871.1 57.5 715.1 0 500 57.5 284.9t155.9 -156T428.6 71.4t215.1 57.5 156 156T857.1 500z"/></svg>
